X: 1
T:Pretty Maggy. HSJJ.065
M:4/4
L:1/8
Q:160
S:HSJ Jackson,Wyresdale,Lancs.1823
R:Strathspey
O:England
A:Lancashire
H:1823
Z:Chris Partington.
K:C
G|c>dc>G A>cG>c|F>cE>c D>ed>e|c>dcG A/-G/.F/.E/ Df|ecBg ecc:|!
|:g/f/|e>cg>c acgc|fd (f/e/d/c/) B<dd>f|ecBc A<cG>c|F<dD>B|cCC:|]
